svg/map/foot_line.svg

<?xml version="1.0" encoding="UTF-8"?>
<svg width="24px" height="24px" viewBox="0 0 24 24" version="1.1" xmlns="http://www.w3.org/2000/svg" xmlns:xlink="http://www.w3.org/1999/xlink">
    <title>foot_line</title>
    <g id="页面-1" stroke="none" stroke-width="1" fill="none" fill-rule="evenodd">
        <g id="Map" transform="translate(-768.000000, 0.000000)" fill-rule="nonzero">
            <g id="foot_line" transform="translate(768.000000, 0.000000)">
                 <path d="M24,0 L24,24 L0,24 L0,0 L24,0 Z M12.5934901,23.257841 L12.5819402,23.2595131 L12.5108777,23.2950439 L12.4918791,23.2987469 L12.4918791,23.2987469 L12.4767152,23.2950439 L12.4056548,23.2595131 C12.3958229,23.2563662 12.3870493,23.2590235 12.3821421,23.2649074 L12.3780323,23.275831 L12.360941,23.7031097 L12.3658947,23.7234994 L12.3769048,23.7357139 L12.4804777,23.8096931 L12.4953491,23.8136134 L12.4953491,23.8136134 L12.5071152,23.8096931 L12.6106902,23.7357139 L12.6232938,23.7196733 L12.6232938,23.7196733 L12.6266527,23.7031097 L12.609561,23.275831 C12.6075724,23.2657013 12.6010112,23.2592993 12.5934901,23.257841 L12.5934901,23.257841 Z M12.8583906,23.1452862 L12.8445485,23.1473072 L12.6598443,23.2396597 L12.6498822,23.2499052 L12.6498822,23.2499052 L12.6471943,23.2611114 L12.6650943,23.6906389 L12.6699349,23.7034178 L12.6699349,23.7034178 L12.678386,23.7104931 L12.8793402,23.8032389 C12.8914285,23.8068999 12.9022333,23.8029875 12.9078286,23.7952264 L12.9118235,23.7811639 L12.8776777,23.1665331 C12.8752882,23.1545897 12.8674102,23.1470016 12.8583906,23.1452862 L12.8583906,23.1452862 Z M12.1430473,23.1473072 C12.1332178,23.1423925 12.1221763,23.1452606 12.1156365,23.1525954 L12.1099173,23.1665331 L12.0757714,23.7811639 C12.0751323,23.7926639 12.0828099,23.8018602 12.0926481,23.8045676 L12.108256,23.8032389 L12.3092106,23.7104931 L12.3186497,23.7024347 L12.3186497,23.7024347 L12.3225043,23.6906389 L12.340401,23.2611114 L12.337245,23.2485176 L12.337245,23.2485176 L12.3277531,23.2396597 L12.1430473,23.1473072 Z" id="MingCute" fill-rule="nonzero"></path>
                <path d="M7.95965,7.25709 C9.35656,6.20969 11.3117,5.74588 13.2081,6.13844 C14.4517,6.39586 15.8986,6.93014 17.0454,8.12993 C18.2087,9.34687 18.9543,11.1336 18.9989,13.6782 C19.037,15.854 18.0076,18.1979 16.627,19.8103 C15.9309,20.6234 15.0935,21.3126 14.1763,21.6909 C13.2402,22.0771 12.1824,22.1486 11.1839,21.6318 C10.2914,21.1699 9.7029,20.5682 9.41342,19.8177 C9.1364,19.0995 9.191,18.3856 9.27943,17.8255 L9.31904889,17.5946037 L9.31904889,17.5946037 L9.43206,17.0248 C9.48232,16.7755 9.52095,16.5661 9.541,16.3732 C9.5808,15.9901 9.53343,15.7905 9.44088,15.6469 C9.21918125,15.302675 8.93744984,15.0967984 8.52145844,14.8268869 L7.97239,14.4721 L7.97239,14.4721 L7.7056577,14.2896426 C7.07520406,13.838725 6.4085,13.19665 6.13179,12.0511 C5.64736,10.0455 6.54109,8.32073 7.95965,7.25709 Z M12.8027,8.09692 C11.4583,7.81864 10.0896,8.1598 9.15944,8.85725 C8.25092,9.53846 7.81426,10.4984 8.07588,11.5815 C8.199855,12.09468 8.462745,12.379359 8.91477081,12.6951339 L9.1908675,12.87815 L9.1908675,12.87815 L9.6623352,13.1778128 C10.1440344,13.494968 10.71214,13.92708 11.1223,14.5638 C11.5666,15.2537 11.592,15.9863 11.5303,16.5799 C11.5098333,16.7769 11.4782556,16.9715 11.4442778,17.1547519 L11.2863519,17.9545222 C11.2750889,18.0159222 11.2646,18.0765667 11.255,18.1374 C11.1836,18.5891 11.1944,18.8774 11.2794,19.098 C11.352,19.2863 11.5316,19.5598 12.1031,19.8556 C12.4665,20.0436 12.8924,20.0571 13.4136,19.8421 C13.9537,19.6192 14.5473,19.1642 15.1078,18.5095 C16.2405,17.1867 17.0271,15.3018 16.9992,13.7132 C16.9615,11.5593 16.3452,10.2919 15.5997,9.5119 C14.8377,8.71479 13.829,8.30936 12.8027,8.09692 Z M5,3.5 C6.10457,3.5 7,4.39543 7,5.5 C7,6.60457 6.10457,7.5 5,7.5 C3.89543,7.5 3,6.60457 3,5.5 C3,4.39543 3.89543,3.5 5,3.5 Z M18.5,4.5 C19.0523,4.5 19.5,4.94772 19.5,5.5 C19.5,6.05228 19.0523,6.5 18.5,6.5 C17.9477,6.5 17.5,6.05228 17.5,5.5 C17.5,4.94772 17.9477,4.5 18.5,4.5 Z M9.5,2 C10.3284,2 11,2.67157 11,3.5 C11,4.32843 10.3284,5 9.5,5 C8.67157,5 8,4.32843 8,3.5 C8,2.67157 8.67157,2 9.5,2 Z M14.5,2 C15.3284,2 16,2.67157 16,3.5 C16,4.32843 15.3284,5 14.5,5 C13.6716,5 13,4.32843 13,3.5 C13,2.67157 13.6716,2 14.5,2 Z" id="形状" fill="#09244B"></path>
            </g>
        </g>
    </g>
</svg>

<svg xmlns="http://www.w3.org/2000/svg" width="24" height="24"><g fill="none" fill-rule="nonzero"><path d="M24 0v24H0V0h24ZM12.593 23.258l-.011.002-.071.035-.02.004-.014-.004-.071-.035c-.01-.004-.019-.001-.024.005l-.004.01-.017.428.005.02.01.013.104.074.015.004.012-.004.104-.074.012-.016.004-.017-.017-.427c-.002-.01-.009-.017-.017-.018Zm.265-.113-.013.002-.185.093-.01.01-.003.011.018.43.005.012.008.007.201.093c.012.004.023 0 .029-.008l.004-.014-.034-.614c-.003-.012-.01-.02-.02-.022Zm-.715.002a.023.023 0 0 0-.027.006l-.006.014-.034.614c0 .012.007.02.017.024l.015-.002.201-.093.01-.008.004-.011.017-.43-.003-.012-.01-.01-.184-.092Z"/><path fill="#09244B" d="M7.96 7.257c1.397-1.047 3.352-1.511 5.248-1.119 1.244.258 2.69.792 3.837 1.992 1.164 1.217 1.91 3.004 1.954 5.548.038 2.176-.991 4.52-2.372 6.132-.696.813-1.533 1.503-2.45 1.88-.937.387-1.995.459-2.993-.058-.893-.462-1.481-1.064-1.77-1.814-.278-.719-.223-1.432-.135-1.992l.04-.231.113-.57c.05-.25.089-.459.109-.652.04-.383-.008-.583-.1-.726-.222-.344-.504-.55-.92-.82l-.549-.355-.266-.182c-.63-.451-1.298-1.093-1.574-2.239-.485-2.005.41-3.73 1.828-4.794Zm4.843.84c-1.345-.278-2.713.063-3.644.76-.908.681-1.345 1.641-1.083 2.725.124.513.387.797.839 1.113l.276.183.471.3c.482.317 1.05.75 1.46 1.386.445.69.47 1.422.408 2.016-.02.197-.052.392-.086.575l-.158.8a7.436 7.436 0 0 0-.031.182c-.071.452-.06.74.024.961.073.188.253.462.824.758.364.188.79.201 1.31-.014.54-.223 1.134-.678 1.695-1.332 1.133-1.323 1.92-3.208 1.891-4.797-.037-2.154-.654-3.421-1.4-4.201-.761-.797-1.77-1.203-2.796-1.415ZM5 3.5a2 2 0 1 1 0 4 2 2 0 0 1 0-4Zm13.5 1a1 1 0 1 1 0 2 1 1 0 0 1 0-2ZM9.5 2a1.5 1.5 0 1 1 0 3 1.5 1.5 0 0 1 0-3Zm5 0a1.5 1.5 0 1 1 0 3 1.5 1.5 0 0 1 0-3Z"/></g></svg>
